public/companies/OPTIMISM-W.svg

<svg width="150" height="21" viewBox="0 0 150 21" fill="none" xmlns="http://www.w3.org/2000/svg">
<path d="M7.57408 20.1975C5.34861 20.1975 3.52522 19.6739 2.10391 18.6266C0.701303 17.5606 0 16.0458 0 14.0822C0 13.6707 0.0467535 13.1658 0.140261 12.5674C0.383379 11.2209 0.729355 9.60318 1.17819 7.71434C2.44989 2.57145 5.73199 0 11.0245 0C12.4645 0 13.7549 0.243119 14.8957 0.729356C16.0365 1.19689 16.9341 1.90755 17.5887 2.86132C18.2432 3.79639 18.5705 4.91848 18.5705 6.22758C18.5705 6.62031 18.5238 7.11589 18.4303 7.71434C18.1497 9.37877 17.8131 10.9964 17.4204 12.5674C16.7658 15.1295 15.6344 17.0464 14.0261 18.318C12.4177 19.571 10.2671 20.1975 7.57408 20.1975ZM7.96681 16.158C9.01409 16.158 9.9024 15.8495 10.6318 15.2323C11.3798 14.6152 11.9128 13.6707 12.2307 12.399C12.6609 10.6411 12.9881 9.10759 13.2126 7.7985C13.2874 7.40577 13.3248 7.00368 13.3248 6.59225C13.3248 4.89042 12.4364 4.03951 10.6598 4.03951C9.61253 4.03951 8.71486 4.34808 7.96681 4.96523C7.23745 5.58238 6.71381 6.5268 6.39589 7.7985C6.05926 9.05149 5.72264 10.585 5.38601 12.399C5.3112 12.7731 5.2738 13.1658 5.2738 13.5772C5.2738 15.2978 6.17147 16.158 7.96681 16.158Z" fill="#F8F8F8"/>
<path d="M21.417 19.917C21.2112 19.917 21.0523 19.8516 20.9401 19.7207C20.8466 19.571 20.8185 19.4027 20.8559 19.2157L24.7271 0.981825C24.7645 0.776109 24.8674 0.607797 25.0357 0.476887C25.204 0.345977 25.3817 0.280521 25.5687 0.280521H33.0305C35.1064 0.280521 36.7708 0.710654 38.0238 1.57092C39.2955 2.43119 39.9314 3.67483 39.9314 5.30185C39.9314 5.76939 39.8753 6.25563 39.7631 6.76057C39.2955 8.91123 38.3511 10.5009 36.9298 11.5294C35.5272 12.558 33.6009 13.0723 31.151 13.0723H27.364L26.0736 19.2157C26.0362 19.4214 25.9334 19.5897 25.765 19.7207C25.5967 19.8516 25.4191 19.917 25.232 19.917H21.417ZM31.3474 9.2011C32.1329 9.2011 32.8155 8.98603 33.3952 8.5559C33.9937 8.12577 34.3864 7.50862 34.5734 6.70446C34.6295 6.38654 34.6576 6.10602 34.6576 5.8629C34.6576 5.32056 34.4986 4.90912 34.1807 4.6286C33.8628 4.32938 33.3204 4.17977 32.5537 4.17977H29.1874L28.1214 9.2011H31.3474Z" fill="#F8F8F8"/>
<path d="M46.2519 19.917C46.0462 19.917 45.8872 19.8516 45.775 19.7207C45.6628 19.571 45.6254 19.4027 45.6628 19.2157L48.7766 4.68471H43.7833C43.5776 4.68471 43.4186 4.61925 43.3064 4.48834C43.2129 4.33873 43.1849 4.17042 43.2223 3.9834L43.8675 0.981825C43.9049 0.776109 44.0077 0.607797 44.176 0.476887C44.3443 0.345977 44.522 0.280521 44.709 0.280521H59.8011C60.0068 0.280521 60.1657 0.345977 60.278 0.476887C60.3528 0.589095 60.3902 0.701303 60.3902 0.813512C60.3902 0.869616 60.3808 0.925721 60.3621 0.981825L59.7169 3.9834C59.6795 4.18912 59.5767 4.35743 59.4083 4.48834C59.2587 4.61925 59.0811 4.68471 58.8754 4.68471H53.9101L50.7963 19.2157C50.7589 19.4214 50.6561 19.5897 50.4878 19.7207C50.3194 19.8516 50.1418 19.917 49.9548 19.917H46.2519Z" fill="#F8F8F8"/>
<path d="M61.1057 19.917C60.9 19.917 60.7411 19.8516 60.6289 19.7207C60.5166 19.571 60.4792 19.4027 60.5166 19.2157L64.4159 0.981825C64.4533 0.776109 64.5562 0.607797 64.7245 0.476887C64.8928 0.345977 65.0704 0.280521 65.2575 0.280521H69.0445C69.2502 0.280521 69.4092 0.345977 69.5214 0.476887C69.5962 0.589095 69.6336 0.701303 69.6336 0.813512C69.6336 0.869616 69.6242 0.925721 69.6055 0.981825L65.7343 19.2157C65.6969 19.4214 65.5941 19.5897 65.4258 19.7207C65.2575 19.8516 65.0798 19.917 64.8928 19.917H61.1057Z" fill="#F8F8F8"/>
<path d="M71.7873 19.917C71.5816 19.917 71.4226 19.8516 71.3104 19.7207C71.1982 19.5897 71.1608 19.4214 71.1982 19.2157L75.0694 0.981825C75.1068 0.776109 75.2096 0.607797 75.3779 0.476887C75.5463 0.345977 75.7333 0.280521 75.939 0.280521H78.9686C79.4175 0.280521 79.7073 0.486237 79.8382 0.897669L82.8959 9.73409L89.7126 0.897669C89.8061 0.748057 89.937 0.607797 90.1053 0.476887C90.2923 0.345977 90.5167 0.280521 90.7786 0.280521H93.8363C94.042 0.280521 94.2009 0.345977 94.3131 0.476887C94.3879 0.589095 94.4254 0.701303 94.4254 0.813512C94.4254 0.869616 94.416 0.925721 94.3973 0.981825L90.5261 19.2157C90.4887 19.4214 90.3858 19.5897 90.2175 19.7207C90.0492 19.8516 89.8716 19.917 89.6845 19.917H86.2902C86.0845 19.917 85.9256 19.8516 85.8133 19.7207C85.7198 19.571 85.6918 19.4027 85.7292 19.2157L87.9173 8.86448L83.6253 14.5591C83.4383 14.7648 83.2606 14.9237 83.0923 15.0359C82.924 15.1482 82.7276 15.2043 82.5032 15.2043H81.0445C80.6518 15.2043 80.3806 14.9892 80.231 14.5591L78.2393 8.61201L75.9951 19.2157C75.9577 19.4214 75.8548 19.5897 75.6865 19.7207C75.5182 19.8516 75.3405 19.917 75.1535 19.917H71.7873Z" fill="#F8F8F8"/>
<path d="M96.5484 19.917C96.3426 19.917 96.1837 19.8516 96.0715 19.7207C95.9593 19.571 95.9219 19.4027 95.9593 19.2157L99.8585 0.981825C99.8959 0.776109 99.9988 0.607797 100.167 0.476887C100.335 0.345977 100.513 0.280521 100.7 0.280521H104.487C104.693 0.280521 104.852 0.345977 104.964 0.476887C105.039 0.589095 105.076 0.701303 105.076 0.813512C105.076 0.869616 105.067 0.925721 105.048 0.981825L101.177 19.2157C101.14 19.4214 101.037 19.5897 100.868 19.7207C100.7 19.8516 100.522 19.917 100.335 19.917H96.5484Z" fill="#F8F8F8"/>
<path d="M114.159 20.1975C112.513 20.1975 111.101 19.9731 109.923 19.5243C108.763 19.0755 107.884 18.477 107.286 17.729C106.706 16.9809 106.416 16.1487 106.416 15.2323C106.416 15.0827 106.435 14.8583 106.472 14.5591C106.51 14.3907 106.585 14.2505 106.697 14.1383C106.828 14.0261 106.977 13.97 107.146 13.97H110.736C110.961 13.97 111.129 14.0074 111.241 14.0822C111.372 14.157 111.503 14.2879 111.634 14.4749C111.765 14.9611 112.064 15.3632 112.532 15.6811C113.018 15.9991 113.682 16.158 114.523 16.158C115.589 16.158 116.45 15.9897 117.104 15.6531C117.759 15.3165 118.152 14.8583 118.282 14.2785C118.301 14.2037 118.31 14.0915 118.31 13.9419C118.31 13.4744 118.021 13.1097 117.441 12.8479C116.861 12.5674 115.795 12.2401 114.243 11.8661C112.429 11.4733 111.054 10.8842 110.119 10.0988C109.184 9.29461 108.717 8.24733 108.717 6.95693C108.717 6.5081 108.773 6.04991 108.885 5.58238C109.259 3.84314 110.185 2.47794 111.662 1.48676C113.158 0.495588 115.084 0 117.441 0C118.862 0 120.125 0.252469 121.228 0.757408C122.331 1.26235 123.182 1.90755 123.781 2.69301C124.398 3.45976 124.706 4.22652 124.706 4.99328C124.706 5.2177 124.697 5.37666 124.678 5.47017C124.641 5.63848 124.557 5.77874 124.426 5.89095C124.314 6.00316 124.173 6.05926 124.005 6.05926H120.246C119.835 6.05926 119.554 5.9003 119.405 5.58238C119.386 5.15224 119.161 4.78757 118.731 4.48834C118.301 4.18912 117.74 4.03951 117.048 4.03951C116.225 4.03951 115.543 4.18912 115 4.48834C114.477 4.78757 114.149 5.22705 114.019 5.80679C114 5.9003 113.99 6.02186 113.99 6.17147C113.99 6.6203 114.252 6.99433 114.776 7.29356C115.318 7.57408 116.263 7.86395 117.609 8.16317C119.704 8.5746 121.228 9.1637 122.182 9.93046C123.154 10.6972 123.64 11.7164 123.64 12.9881C123.64 13.4183 123.584 13.8858 123.472 14.3907C123.061 16.2983 122.06 17.7477 120.47 18.7388C118.9 19.7113 116.796 20.1975 114.159 20.1975Z" fill="#F8F8F8"/>
<path d="M127.362 19.917C127.156 19.917 126.997 19.8516 126.885 19.7207C126.773 19.5897 126.735 19.4214 126.773 19.2157L130.644 0.981825C130.681 0.776109 130.784 0.607797 130.953 0.476887C131.121 0.345977 131.308 0.280521 131.514 0.280521H134.543C134.992 0.280521 135.282 0.486237 135.413 0.897669L138.471 9.73409L145.287 0.897669C145.381 0.748057 145.512 0.607797 145.68 0.476887C145.867 0.345977 146.091 0.280521 146.353 0.280521H149.411C149.617 0.280521 149.776 0.345977 149.888 0.476887C149.963 0.589095 150 0.701303 150 0.813512C150 0.869616 149.991 0.925721 149.972 0.981825L146.101 19.2157C146.063 19.4214 145.96 19.5897 145.792 19.7207C145.624 19.8516 145.446 19.917 145.259 19.917H141.865C141.659 19.917 141.5 19.8516 141.388 19.7207C141.294 19.571 141.266 19.4027 141.304 19.2157L143.492 8.86448L139.2 14.5591C139.013 14.7648 138.835 14.9237 138.667 15.0359C138.499 15.1482 138.302 15.2043 138.078 15.2043H136.619C136.226 15.2043 135.955 14.9892 135.806 14.5591L133.814 8.61201L131.57 19.2157C131.532 19.4214 131.429 19.5897 131.261 19.7207C131.093 19.8516 130.915 19.917 130.728 19.917H127.362Z" fill="#F8F8F8"/>
</svg>

<svg width="150" height="21" viewBox="0 0 150 21" fill="none" xmlns="http://www.w3.org/2000/svg"><path d="M7.574 20.198q-3.338 0-5.47-1.571Q0 17.028 0 14.082q0-.617.14-1.515.365-2.02 1.038-4.853Q3.086 0 11.024 0q2.16 0 3.872.73 1.71.701 2.693 2.131.981 1.402.982 3.367 0 .588-.14 1.486a64 64 0 0 1-1.01 4.853q-.983 3.845-3.395 5.751-2.412 1.88-6.452 1.88m.393-4.04q1.57 0 2.665-.926 1.121-.925 1.599-2.833a68 68 0 0 0 .982-4.6q.111-.59.112-1.207 0-2.552-2.665-2.552-1.57 0-2.693.925-1.094.926-1.571 2.834-.505 1.878-1.01 4.6a6 6 0 0 0-.112 1.178q0 2.58 2.693 2.581m13.45 3.759q-.309 0-.477-.196a.67.67 0 0 1-.084-.505L24.727.982a.8.8 0 0 1 .309-.505.86.86 0 0 1 .533-.196h7.462q3.113 0 4.993 1.29Q39.93 2.86 39.93 5.3q0 .702-.168 1.46-.702 3.225-2.833 4.768-2.105 1.543-5.779 1.543h-3.787l-1.29 6.144a.8.8 0 0 1-.309.505.86.86 0 0 1-.533.196zm9.93-10.716q1.178 0 2.048-.645.898-.645 1.178-1.852.084-.476.085-.841 0-.813-.477-1.234-.477-.45-1.627-.45h-3.367l-1.066 5.022zm14.905 10.716q-.309 0-.477-.196a.6.6 0 0 1-.112-.505l3.114-14.531h-4.994q-.307 0-.477-.197a.67.67 0 0 1-.084-.505l.645-3.001a.8.8 0 0 1 .309-.505.86.86 0 0 1 .533-.196h15.092q.309 0 .477.196a.6.6 0 0 1 .112.337.5.5 0 0 1-.028.168l-.645 3.001a.8.8 0 0 1-.309.505.78.78 0 0 1-.533.197H53.91l-3.114 14.53a.8.8 0 0 1-.308.506.86.86 0 0 1-.533.196zm14.854 0q-.309 0-.477-.196a.6.6 0 0 1-.112-.505L64.416.982a.8.8 0 0 1 .309-.505.86.86 0 0 1 .532-.196h3.787q.309 0 .477.196a.6.6 0 0 1 .113.337.5.5 0 0 1-.028.168l-3.872 18.234a.8.8 0 0 1-.308.505.86.86 0 0 1-.533.196zm10.681 0q-.307 0-.477-.196-.168-.197-.112-.505L75.07.982a.8.8 0 0 1 .309-.505.9.9 0 0 1 .561-.196h3.03q.673 0 .87.617l3.057 8.836L89.713.898q.14-.225.392-.421.28-.196.674-.196h3.057q.309 0 .477.196a.6.6 0 0 1 .112.337.5.5 0 0 1-.028.168l-3.87 18.234a.8.8 0 0 1-.31.505.86.86 0 0 1-.532.196H86.29q-.308 0-.477-.196a.67.67 0 0 1-.084-.505l2.188-10.352-4.292 5.695a3 3 0 0 1-.533.477 1.04 1.04 0 0 1-.589.168h-1.459q-.588 0-.813-.645l-1.992-5.947-2.244 10.604a.8.8 0 0 1-.309.505.86.86 0 0 1-.533.196zm24.761 0q-.307 0-.477-.196-.168-.225-.112-.505L99.86.982a.8.8 0 0 1 .308-.505.85.85 0 0 1 .533-.196h3.787q.309 0 .477.196a.6.6 0 0 1 .112.337.5.5 0 0 1-.028.168l-3.871 18.234a.8.8 0 0 1-.309.505.85.85 0 0 1-.533.196zm17.611.281q-2.469 0-4.236-.674-1.74-.673-2.637-1.795-.87-1.122-.87-2.497 0-.225.056-.673a.84.84 0 0 1 .225-.42.67.67 0 0 1 .449-.169h3.59q.337 0 .505.112.197.112.393.393.196.729.898 1.206.73.477 1.991.477 1.6 0 2.581-.505.983-.505 1.178-1.375.028-.112.028-.336 0-.701-.869-1.094-.87-.42-3.198-.982-2.721-.59-4.124-1.767-1.402-1.207-1.402-3.142 0-.673.168-1.375.561-2.609 2.777-4.095Q113.906 0 117.441 0q2.132 0 3.787.757t2.553 1.936q.925 1.15.925 2.3 0 .338-.028.477a.75.75 0 0 1-.252.421.57.57 0 0 1-.421.168h-3.759q-.617 0-.841-.477-.029-.644-.674-1.094-.645-.448-1.683-.448-1.234 0-2.048.448-.785.45-.981 1.319a2 2 0 0 0-.029.364q0 .674.786 1.123.814.42 2.833.87 3.142.616 4.573 1.766 1.458 1.15 1.458 3.058 0 .645-.168 1.403-.617 2.861-3.002 4.348-2.355 1.459-6.311 1.459m13.203-.281q-.309 0-.477-.196-.169-.197-.112-.505L130.644.982a.8.8 0 0 1 .309-.505.9.9 0 0 1 .561-.196h3.029q.673 0 .87.617l3.058 8.836 6.816-8.836q.141-.225.393-.421.28-.196.673-.196h3.058q.309 0 .477.196a.6.6 0 0 1 .112.337.5.5 0 0 1-.028.168l-3.871 18.234a.8.8 0 0 1-.309.505.85.85 0 0 1-.533.196h-3.394q-.309 0-.477-.196a.67.67 0 0 1-.084-.505l2.188-10.352-4.292 5.695a3 3 0 0 1-.533.477 1.04 1.04 0 0 1-.589.168h-1.459q-.59 0-.813-.645l-1.992-5.947-2.244 10.604a.8.8 0 0 1-.309.505.85.85 0 0 1-.533.196z" fill="#F8F8F8"/></svg>
